apps/earn-protocol-landing-page/public/img/landing-page/sumr-token_bubbles.svg

<svg xmlns="http://www.w3.org/2000/svg" width="586" height="386" fill="none" xmlns:v="https://vecta.io/nano"><g clip-path="url(#P)"><use href="#Q" fill="#1c1c1c"/><use href="#Q" fill="url(#A)" fill-opacity=".2"/><circle opacity=".2" cx="291.5" cy="193" r="145.5" fill="url(#B)" stroke="url(#C)"/><circle opacity=".2" cx="61.5" cy="240.5" r="19" fill="url(#D)" stroke="url(#E)"/><circle opacity=".2" cx="554.5" cy="359.5" r="109" fill="url(#F)" stroke="url(#G)"/><circle opacity=".2" cx="35.5" cy="19.5" r="109" fill="url(#H)" stroke="url(#I)"/><circle opacity=".2" cx="484.5" cy="66.5" r="46" fill="url(#J)" stroke="url(#K)"/><circle opacity=".2" cx="81" cy="367" r="63.5" fill="url(#L)" stroke="url(#M)"/><g fill="#ff49a4"><circle opacity=".1" cx="291.5" cy="193" r="98"/><circle cx="291.5" cy="193" r="64"/></g><use href="#R" fill="url(#N)"/><use href="#R" fill="#fff"/><use href="#S" fill="url(#O)"/><use href="#S" fill="#fff"/><circle opacity=".5" cx="566" cy="167" r="26" fill="#ff49a4"/></g><defs><linearGradient id="A" x1="555.449" y1="397.792" x2="134.703" y2="-102.712" href="#T"><stop stop-color="#1c1c1c"/><stop offset=".5" stop-color="#af145c" stop-opacity=".5"/><stop offset="1" stop-color="#be0059"/></linearGradient><linearGradient id="B" x1="145.5" y1="193" x2="437.5" y2="193" href="#T"><stop stop-color="#ff49a4" stop-opacity=".5"/><stop offset=".93" stop-color="#b049ff" stop-opacity=".5"/></linearGradient><linearGradient id="C" x1="145.5" y1="193" x2="437.5" y2="193" href="#T"><stop stop-color="#ff49a4"/><stop offset=".93" stop-color="#b049ff"/></linearGradient><linearGradient id="D" x1="42" y1="240.5" x2="81" y2="240.5" href="#T"><stop stop-color="#ff49a4" stop-opacity=".5"/><stop offset=".93" stop-color="#b049ff" stop-opacity=".5"/></linearGradient><linearGradient id="E" x1="42" y1="240.5" x2="81" y2="240.5" href="#T"><stop stop-color="#ff49a4"/><stop offset=".93" stop-color="#b049ff"/></linearGradient><linearGradient id="F" x1="445" y1="359.5" x2="664" y2="359.5" href="#T"><stop stop-color="#ff49a4" stop-opacity=".5"/><stop offset=".93" stop-color="#b049ff" stop-opacity=".5"/></linearGradient><linearGradient id="G" x1="445" y1="359.5" x2="664" y2="359.5" href="#T"><stop stop-color="#ff49a4"/><stop offset=".93" stop-color="#b049ff"/></linearGradient><linearGradient id="H" x1="-74" y1="19.5" x2="145" y2="19.5" href="#T"><stop stop-color="#ff49a4" stop-opacity=".5"/><stop offset=".93" stop-color="#b049ff" stop-opacity=".5"/></linearGradient><linearGradient id="I" x1="-74" y1="19.5" x2="145" y2="19.5" href="#T"><stop stop-color="#ff49a4"/><stop offset=".93" stop-color="#b049ff"/></linearGradient><linearGradient id="J" x1="438" y1="66.5" x2="531" y2="66.5" href="#T"><stop stop-color="#ff49a4" stop-opacity=".5"/><stop offset=".93" stop-color="#b049ff" stop-opacity=".5"/></linearGradient><linearGradient id="K" x1="438" y1="66.5" x2="531" y2="66.5" href="#T"><stop stop-color="#ff49a4"/><stop offset=".93" stop-color="#b049ff"/></linearGradient><linearGradient id="L" x1="17" y1="367" x2="145" y2="367" href="#T"><stop stop-color="#ff49a4" stop-opacity=".5"/><stop offset=".93" stop-color="#b049ff" stop-opacity=".5"/></linearGradient><linearGradient id="M" x1="17" y1="367" x2="145" y2="367" href="#T"><stop stop-color="#ff49a4"/><stop offset=".93" stop-color="#b049ff"/></linearGradient><linearGradient id="N" x1="264.828" y1="192.621" x2="310.52" y2="192.621" href="#T"><stop stop-color="#ff49a4"/><stop offset=".93" stop-color="#b049ff"/></linearGradient><linearGradient id="O" x1="310.703" y1="216.752" x2="329.053" y2="216.752" href="#T"><stop stop-color="#ff49a4"/><stop offset=".93" stop-color="#b049ff"/></linearGradient><clipPath id="P"><path d="M.5 24c0-13.255 10.745-24 24-24h537c13.255 0 24 10.745 24 24v338c0 13.255-10.745 24-24 24h-537c-13.255 0-24-10.745-24-24V24z" fill="#fff"/></clipPath><path id="Q" d="M.5 24c0-13.255 10.745-24 24-24h537c13.255 0 24 10.745 24 24v338c0 13.255-10.745 24-24 24h-537c-13.255 0-24-10.745-24-24V24z"/><path id="R" d="M293.124 187.006c10.679 2.422 17.396 7.927 17.396 16.845 0 11.121-10.13 17.396-22.791 17.396-11.671 0-21.03-6.055-22.901-16.295l14.203-2.532c.66 4.734 4.294 7.157 8.698 7.157 4.624 0 7.376-2.092 7.376-4.955 0-3.083-2.972-4.514-6.055-5.175l-6.606-1.321c-10.13-2.422-16.736-8.037-16.736-17.065 0-10.9 10.35-17.066 22.021-17.066 11.56 0 19.598 6.166 21.249 16.515l-14.203 2.422c-.55-4.404-3.413-7.046-7.817-7.046-3.744 0-6.716 1.761-6.716 4.844 0 2.973 2.422 4.294 5.615 4.955l7.267 1.321z"/><path id="S" d="M319.878 212.164a9.18 9.18 0 0 0-9.175 9.175h18.35a9.18 9.18 0 0 0-9.175-9.175z"/><linearGradient id="T" gradientUnits="userSpaceOnUse"/></defs></svg>

<svg width="586" height="386" viewBox="0 0 586 386" fill="none" xmlns="http://www.w3.org/2000/svg"
  xmlns:xlink="http://www.w3.org/1999/xlink">
  <g clip-path="url(#clip0_10944_16980)">
    <path
      d="M0.5 24C0.5 10.7452 11.2452 0 24.5 0H561.5C574.755 0 585.5 10.7452 585.5 24V362C585.5 375.255 574.755 386 561.5 386H24.5C11.2452 386 0.5 375.255 0.5 362V24Z"
      fill="#1C1C1C" />
    <path
      d="M0.5 24C0.5 10.7452 11.2452 0 24.5 0H561.5C574.755 0 585.5 10.7452 585.5 24V362C585.5 375.255 574.755 386 561.5 386H24.5C11.2452 386 0.5 375.255 0.5 362V24Z"
      fill="url(#paint0_linear_10944_16980)" fill-opacity="0.2" />
    <circle opacity="0.2" cx="291.5" cy="193" r="145.5" fill="url(#paint1_linear_10944_16980)"
      stroke="url(#paint2_linear_10944_16980)" />
    <circle opacity="0.2" cx="61.5" cy="240.5" r="19" fill="url(#paint3_linear_10944_16980)"
      stroke="url(#paint4_linear_10944_16980)" />
    <circle opacity="0.2" cx="554.5" cy="359.5" r="109" fill="url(#paint5_linear_10944_16980)"
      stroke="url(#paint6_linear_10944_16980)" />
    <circle opacity="0.2" cx="35.5" cy="19.5" r="109" fill="url(#paint7_linear_10944_16980)"
      stroke="url(#paint8_linear_10944_16980)" />
    <circle opacity="0.2" cx="484.5" cy="66.5" r="46" fill="url(#paint9_linear_10944_16980)"
      stroke="url(#paint10_linear_10944_16980)" />
    <circle opacity="0.2" cx="81" cy="367" r="63.5" fill="url(#paint11_linear_10944_16980)"
      stroke="url(#paint12_linear_10944_16980)" />
    <circle opacity="0.1" cx="291.5" cy="193" r="98" fill="#FF49A4" />
    <circle cx="291.5" cy="193" r="64" fill="#FF49A4" />
    <path
      d="M293.124 187.006C303.803 189.428 310.52 194.933 310.52 203.851C310.52 214.972 300.39 221.247 287.729 221.247C276.058 221.247 266.699 215.192 264.828 204.952L279.031 202.42C279.691 207.154 283.325 209.577 287.729 209.577C292.353 209.577 295.105 207.485 295.105 204.622C295.105 201.539 292.133 200.108 289.05 199.447L282.444 198.126C272.314 195.704 265.708 190.089 265.708 181.061C265.708 170.161 276.058 163.995 287.729 163.995C299.289 163.995 307.327 170.161 308.978 180.51L294.775 182.932C294.225 178.528 291.362 175.886 286.958 175.886C283.214 175.886 280.242 177.647 280.242 180.73C280.242 183.703 282.664 185.024 285.857 185.685L293.124 187.006Z"
      fill="url(#paint13_linear_10944_16980)" />
    <path
      d="M293.124 187.006C303.803 189.428 310.52 194.933 310.52 203.851C310.52 214.972 300.39 221.247 287.729 221.247C276.058 221.247 266.699 215.192 264.828 204.952L279.031 202.42C279.691 207.154 283.325 209.577 287.729 209.577C292.353 209.577 295.105 207.485 295.105 204.622C295.105 201.539 292.133 200.108 289.05 199.447L282.444 198.126C272.314 195.704 265.708 190.089 265.708 181.061C265.708 170.161 276.058 163.995 287.729 163.995C299.289 163.995 307.327 170.161 308.978 180.51L294.775 182.932C294.225 178.528 291.362 175.886 286.958 175.886C283.214 175.886 280.242 177.647 280.242 180.73C280.242 183.703 282.664 185.024 285.857 185.685L293.124 187.006Z"
      fill="white" />
    <path
      d="M319.878 212.164C314.811 212.164 310.703 216.272 310.703 221.339H329.053C329.053 216.272 324.945 212.164 319.878 212.164Z"
      fill="url(#paint14_linear_10944_16980)" />
    <path
      d="M319.878 212.164C314.811 212.164 310.703 216.272 310.703 221.339H329.053C329.053 216.272 324.945 212.164 319.878 212.164Z"
      fill="white" />
    <circle opacity="0.5" cx="566" cy="167" r="26" fill="#FF49A4" />
  </g>
  <defs>
    <linearGradient id="paint0_linear_10944_16980" x1="555.449" y1="397.792" x2="134.703"
      y2="-102.712" gradientUnits="userSpaceOnUse">
      <stop stop-color="#1C1C1C" />
      <stop offset="0.5" stop-color="#AF145C" stop-opacity="0.5" />
      <stop offset="1" stop-color="#BE0059" />
    </linearGradient>
    <linearGradient id="paint1_linear_10944_16980" x1="145.5" y1="193" x2="437.5" y2="193"
      gradientUnits="userSpaceOnUse">
      <stop stop-color="#FF49A4" stop-opacity="0.5" />
      <stop offset="0.93" stop-color="#B049FF" stop-opacity="0.5" />
    </linearGradient>
    <linearGradient id="paint2_linear_10944_16980" x1="145.5" y1="193" x2="437.5" y2="193"
      gradientUnits="userSpaceOnUse">
      <stop stop-color="#FF49A4" />
      <stop offset="0.93" stop-color="#B049FF" />
    </linearGradient>
    <linearGradient id="paint3_linear_10944_16980" x1="42" y1="240.5" x2="81" y2="240.5"
      gradientUnits="userSpaceOnUse">
      <stop stop-color="#FF49A4" stop-opacity="0.5" />
      <stop offset="0.93" stop-color="#B049FF" stop-opacity="0.5" />
    </linearGradient>
    <linearGradient id="paint4_linear_10944_16980" x1="42" y1="240.5" x2="81" y2="240.5"
      gradientUnits="userSpaceOnUse">
      <stop stop-color="#FF49A4" />
      <stop offset="0.93" stop-color="#B049FF" />
    </linearGradient>
    <linearGradient id="paint5_linear_10944_16980" x1="445" y1="359.5" x2="664" y2="359.5"
      gradientUnits="userSpaceOnUse">
      <stop stop-color="#FF49A4" stop-opacity="0.5" />
      <stop offset="0.93" stop-color="#B049FF" stop-opacity="0.5" />
    </linearGradient>
    <linearGradient id="paint6_linear_10944_16980" x1="445" y1="359.5" x2="664" y2="359.5"
      gradientUnits="userSpaceOnUse">
      <stop stop-color="#FF49A4" />
      <stop offset="0.93" stop-color="#B049FF" />
    </linearGradient>
    <linearGradient id="paint7_linear_10944_16980" x1="-74" y1="19.5" x2="145" y2="19.5"
      gradientUnits="userSpaceOnUse">
      <stop stop-color="#FF49A4" stop-opacity="0.5" />
      <stop offset="0.93" stop-color="#B049FF" stop-opacity="0.5" />
    </linearGradient>
    <linearGradient id="paint8_linear_10944_16980" x1="-74" y1="19.5" x2="145" y2="19.5"
      gradientUnits="userSpaceOnUse">
      <stop stop-color="#FF49A4" />
      <stop offset="0.93" stop-color="#B049FF" />
    </linearGradient>
    <linearGradient id="paint9_linear_10944_16980" x1="438" y1="66.5" x2="531" y2="66.5"
      gradientUnits="userSpaceOnUse">
      <stop stop-color="#FF49A4" stop-opacity="0.5" />
      <stop offset="0.93" stop-color="#B049FF" stop-opacity="0.5" />
    </linearGradient>
    <linearGradient id="paint10_linear_10944_16980" x1="438" y1="66.5" x2="531" y2="66.5"
      gradientUnits="userSpaceOnUse">
      <stop stop-color="#FF49A4" />
      <stop offset="0.93" stop-color="#B049FF" />
    </linearGradient>
    <linearGradient id="paint11_linear_10944_16980" x1="17" y1="367" x2="145" y2="367"
      gradientUnits="userSpaceOnUse">
      <stop stop-color="#FF49A4" stop-opacity="0.5" />
      <stop offset="0.93" stop-color="#B049FF" stop-opacity="0.5" />
    </linearGradient>
    <linearGradient id="paint12_linear_10944_16980" x1="17" y1="367" x2="145" y2="367"
      gradientUnits="userSpaceOnUse">
      <stop stop-color="#FF49A4" />
      <stop offset="0.93" stop-color="#B049FF" />
    </linearGradient>
    <linearGradient id="paint13_linear_10944_16980" x1="264.828" y1="192.621" x2="310.52"
      y2="192.621" gradientUnits="userSpaceOnUse">
      <stop stop-color="#FF49A4" />
      <stop offset="0.93" stop-color="#B049FF" />
    </linearGradient>
    <linearGradient id="paint14_linear_10944_16980" x1="310.703" y1="216.752" x2="329.053"
      y2="216.752" gradientUnits="userSpaceOnUse">
      <stop stop-color="#FF49A4" />
      <stop offset="0.93" stop-color="#B049FF" />
    </linearGradient>
    <clipPath id="clip0_10944_16980">
      <path
        d="M0.5 24C0.5 10.7452 11.2452 0 24.5 0H561.5C574.755 0 585.5 10.7452 585.5 24V362C585.5 375.255 574.755 386 561.5 386H24.5C11.2452 386 0.5 375.255 0.5 362V24Z"
        fill="white" />
    </clipPath>
  </defs>
</svg>
